!!!OTL: DAS LIEBEN STEHT EIM JEDEN FREI
!!!ARE: Europa, Mitteleuropa, Deutschland, Hildburghausen
!!!SCT: E0718
!!!YEM: Copyright 1995, estate of Helmut Schaffrath.
**kern
*ICvox
*Ivox
*M4/4
*k[f#]
*G:
{4d
=1
4d
4g
4g
4b
=2
8b
8a
4g
4a}
{4b
=3
4cc
4a
4b
4a
=4
2g
4r}
{4g
=5
4b
4dd
4dd
8ee
8dd
=6
4cc
4cc
4cc}
{8dd
8cc
=7
4b
4b
4b
4g
=8
4a
4a
4a}
{4b
=9
8dd
8cc
4a
4b
4a
=10
2g
4r}
==
!!!AGN: Liebes - Lied, Leid, Klage
!!!ONB: ESAC (Essen Associative Code) Database: ERK2
!!!AMT: simple quadruple
!!!AIN: vox
!!!EED: Helmut Schaffrath
!!!EEV: 1.0
*-
